Origami/48x48/apps/xnretro.svg

<svg width="48" height="48" version="1.1" viewBox="0 0 48 48" xmlns="http://www.w3.org/2000/svg">
 <path d="m34.748047 7.1601562c-1.093052 0.2036556-2.184651 0.4394532-2.748047 0.4394532-4.617582 0-9.991488 1.9436452-13.175781 5.8437496-2.718985 3.330197-3.589734 8.317157-3.78711 12.210938 0.196216-1.932098 2.77873-2.316785 4.101563-3.402344 1.439125-1.180992 2.703058-5.451172 4.861328-5.451172 0.270702-5e-5 0.541233 0.013636 0.810547 0.041016 8e-3 4.05e-4 0.015487 0.001453 0.023437 0.001953 8.446461 0.436339 14.666016 6.601193 14.666016 15.15625 0 1.714482-0.277997 3.361802-0.777344 4.910156 0.140273 0.06234 0.27334 0.110491 0.40625 0.15625a20 20 0 0 0 0.007813 -0.009765c0.282137-0.326719 0.539744-0.669321 0.798828-1.011719a20 20 0 0 0 0.373047 -0.490234c0.219018-0.308768 0.418628-0.629578 0.61914-0.949219a20 20 0 0 0 0.404297 -0.660157c0.17516-0.304833 0.337512-0.616603 0.496094-0.929687a20 20 0 0 0 0.363281 -0.751953c0.143876-0.31616 0.279096-0.635941 0.40625-0.958984a20 20 0 0 0 0.296875 -0.808594c0.10747-0.311832 0.212718-0.624455 0.304688-0.941406a20 20 0 0 0 0.240234 -0.947266c0.067821-0.285121 0.140013-0.569149 0.195313-0.857422a20 20 0 0 0 0.169922 -1.123047c0.033415-0.250411 0.077616-0.497924 0.101562-0.75a20 20 0 0 0 0.09375 -1.876953c-0.0017-0.42029-0.016712-0.84042-0.044922-1.259766-1.25e-4 -0.001944 1.29e-4 -0.003915 0-0.005859-0.007852-0.118823-0.02144-0.236981-0.03125-0.355469-0.04388-0.555948-0.110998-1.109817-0.201172-1.660156-0.020773-0.123771-0.046802-0.24606-0.070312-0.369141a20 20 0 0 0 -0.003906 -0.021484c-0.085361-0.45257-0.186337-0.902057-0.302735-1.347656-3.61e-4 -0.001385-0.001591-0.002522-0.001953-0.003907-0.059894-0.229187-0.123515-0.456978-0.191406-0.683593-0.112746-0.3753-0.236497-0.747206-0.371094-1.115235-0.104494-0.286388-0.214642-0.570428-0.332031-0.851562-0.134192-0.322693-0.27682-0.641813-0.427735-0.957031-0.111858-0.232761-0.22316-0.466837-0.34375-0.695313a20 20 0 0 0 -0.005859 -0.013672l-0.001953-0.001953c-0.185738-0.348126-0.381834-0.690771-0.587891-1.027344-0.00366-0.006012-0.008053-0.011569-0.011719-0.017578-0.160963-0.263879-0.326674-0.524742-0.5-0.78125l-0.003906-0.005859a20 20 0 0 0 -0.003906 -0.007813c-0.202144-0.298634-0.414276-0.59291-0.632812-0.880859-0.202626-0.266981-0.41246-0.527988-0.628907-0.785156a20 20 0 0 0 -0.007812 -0.009766c-0.071592-0.082622-0.14386-0.164657-0.216797-0.246094-0.403365-0.463059-0.825608-0.9107995-1.273438-1.3378902-0.005711-0.0053667-0.01186-0.0102651-0.017578-0.015625a20 20 0 0 0 -0.097656 -0.0917969c-0.240045-0.2253476-0.484109-0.4477751-0.736328-0.6621094 0.004944-0.0049167 0.006816-0.0087784 0.011719-0.0136719a20 20 0 0 0 -2.214844 -1.6152344zm3.757812 30.015625c-0.09712 0.109147-0.195433 0.217226-0.294921 0.324219 0.09949-0.106993 0.197801-0.215072 0.294921-0.324219zm-1.134765 1.173828c-0.123501 0.118134-0.248511 0.23468-0.375 0.34961-0.0071 0.0153-0.012381 0.031605-0.019532 0.046875 0.133353-0.130316 0.264878-0.262496 0.394532-0.396485z" style="fill:#ffc42e"/>
 <path d="m24.818359 16.041016c4.034049 0.40968 5.88086 3.916457 5.88086 8.058593 5e-5 0.270702-0.013636 0.541232-0.041016 0.810547-4.05e-4 8e-3 -0.001453 0.015488-0.001953 0.023438-0.436339 8.446462-6.101193 14.666015-14.65625 14.666015-1.714482 0-4.205552-1.299481-5.753906-1.798828 0.050728 0.043229-0.020698 0.255233-0.144532 0.550781a20 20 0 0 0 13.898438 5.648438c0.42029-0.0017 0.84042-0.016712 1.259766-0.044922 0.001944-1.25e-4 0.003915 1.29e-4 0.005859 0 0.118823-0.007852 0.236981-0.02144 0.355469-0.03125 0.555948-0.04388 1.109817-0.110998 1.660156-0.201172 0.123771-0.020773 0.24606-0.046802 0.369141-0.070312a20 20 0 0 0 0.021484 -0.003906c0.45257-0.085361 0.902057-0.186337 1.347656-0.302735 0.001385-3.61e-4 0.002522-0.001591 0.003907-0.001953 0.229187-0.059894 0.456978-0.123515 0.683593-0.191406 0.3753-0.112746 0.747206-0.236497 1.115235-0.371094 0.286388-0.104494 0.570428-0.214642 0.851562-0.332031 0.322693-0.134192 0.641813-0.27682 0.957031-0.427735 0.232761-0.111858 0.466837-0.22316 0.695313-0.34375a20 20 0 0 0 0.013672 -0.005859l0.001953-0.001953c0.348173-0.185785 0.690771-0.381834 1.027344-0.587891 0.006012-0.00366 0.011569-0.008053 0.017578-0.011719 0.263879-0.160963 0.524742-0.326674 0.78125-0.5l0.005859-0.003906a20 20 0 0 0 0.007813 -0.003906c0.298632-0.202132 0.59291-0.414276 0.880859-0.632812 0.266981-0.202626 0.527988-0.41246 0.785156-0.628907a20 20 0 0 0 0.009766 -0.007812c0.08262-0.07159 0.164657-0.14386 0.246094-0.216797 0.463059-0.403365 0.910799-0.825608 1.33789-1.273438 0.005367-0.005711 0.010265-0.01186 0.015625-0.017578a20 20 0 0 0 0.091797 -0.097656c0.225348-0.240045 0.447775-0.484109 0.66211-0.736328 0.50755-1.560039 0.789062-3.221775 0.789062-4.951172 0-8.560414-6.727723-15.530454-15.181641-15.958984zm-15.564453 21.035156c0.1303161 0.133352 0.2624903 0.264875 0.3964844 0.394531-0.1181339-0.123501-0.2346799-0.248511-0.3496094-0.375-0.0153049-0.0071-0.0315949-0.012381-0.046875-0.019531z" style="fill:#ff8514"/>
 <path d="m10.923828 9.2539062c-0.133352 0.1303161-0.264875 0.2624903-0.394531 0.3964844 0.123501-0.1181339 0.248511-0.2346799 0.375-0.3496094 0.0071-0.0153049 0.012381-0.0315949 0.019531-0.046875zm-1.2343749 1.2460938c-0.0994883 0.106993-0.1978021 0.215072-0.2949219 0.324219 0.0971198-0.109147 0.1954336-0.217226 0.2949219-0.324219zm-0.6484375 0.251953a20 20 0 0 0 -5.0410156 13.248047 20 20 0 0 0 0.0449219 1.259766c0.007802 0.120788 0.0212748 0.240902 0.03125 0.361328a20 20 0 0 0 0.2011719 1.660156c0.0219819 0.130963 0.0496631 0.26029 0.0742187 0.390625a20 20 0 0 0 0.3027344 1.347656c0.0601954 0.230592 0.125058 0.459516 0.1933593 0.6875a20 20 0 0 0 0.3710938 1.115235c0.1044937 0.286388 0.2146418 0.570428 0.3320312 0.851562a20 20 0 0 0 0.4277344 0.957031c0.1140001 0.237218 0.226301 0.476377 0.3496094 0.708985 4.082e-4 7.7e-4 0.0015448 0.001183 0.0019531 0.001953a20 20 0 0 0 0.5878907 1.027344c0.1643756 0.27005 0.3344467 0.536479 0.5117187 0.798828 0.2048295 0.303131 0.4189064 0.60239 0.640625 0.894531 0.2051431 0.2703 0.4174077 0.534657 0.6367187 0.794922a20 20 0 0 0 0.2167969 0.246094c0.403365 0.463059 0.8256081 0.910799 1.2734379 1.33789a20 20 0 0 0 0.115234 0.107422c0.240045 0.225348 0.484109 0.447775 0.736328 0.66211 1.560074 0.507595 3.221775 0.789062 4.951172 0.789062 8.560414 0 15.530454-6.727723 15.958984-15.181641-0.40968 4.034049-3.816848 6.88086-7.958984 6.88086-0.270702 5e-5 -0.541233-0.013636-0.810547-0.041016-8e-3 -4.05e-4 -0.015487-0.001453-0.023437-0.001953-8.446464-0.43639-14.765625-7.101193-14.765625-15.65625 0-1.714482 0.2779968-3.361802 0.7773438-4.910156-0.045393-0.125168-0.0912181-0.220026-0.1367188-0.337891z" style="fill:#ff5757"/>
 <path d="m24 15.999906c-3.50984 0-6.484594 2.263919-7.5625 5.408203-0.206288 0.899183-0.348336 1.823577-0.396484 2.773438 0.40968-4.034049 3.816848-7.181641 7.958984-7.181641 0.270702-5e-5 0.541233 0.01364 0.810547 0.04102 8e-3 4.05e-4 0.01549 0.0015 0.02344 2e-3 8.297411 0.428689 14.913086 7.162299 15.144532 15.509765 0.006471-0.184463 0.021481-0.36675 0.021481-0.552785 0-8.555057-6.719552-15.520641-15.166016-15.957031-8e-3 -5e-4 -0.01544-0.0015-0.02344-2e-3 -0.269311-0.027333-0.539842-0.041019-0.810544-0.040969zm19.974609 8.509766a20 20 0 0 1 -4.351562 11.878906c-0.112688 0.515421-0.240383 1.02534-0.400391 1.521484a20 20 0 0 0 4.777344 -12.910156 20 20 0 0 0 -0.025391 -0.490234zm-4.96875 12.666015a20 20 0 0 1 -0.294921 0.324219 20 20 0 0 0 0.294921 -0.324219zm0 1a20 20 0 0 1 -0.294921 0.324219 20 20 0 0 0 0.294921 -0.324219zm-1.134765 1.173828a20 20 0 0 1 -0.375 0.34961c-0.0071 0.0153-0.01238 0.0316-0.01953 0.04687a20 20 0 0 0 0.394532 -0.396485z" style="opacity:.2"/>
 <path d="m32 8.000016c-8.555057 0-15.520641 6.719552-15.957031 15.166016-5e-4 0.0079-0.0015 0.01544-2e-3 0.02344-0.02738 0.269314-0.04107 0.539845-0.04102 0.810547 0 0.1726 0.01462 0.341835 0.02539 0.511719 0.0066-0.107384 0.0047-0.215201 0.01563-0.322266 4.05e-4 -8e-3 0.0015-0.01549 2e-3 -0.02344 0.43639-8.446464 7.401974-15.166016 15.957031-15.166016 1.714482 0 3.361802 0.2779967 4.910156 0.7773438a20 20 0 0 0 -2.048828 -1.5078126c-0.928978-0.1706267-1.882667-0.2695312-2.861328-0.2695312zm5.175781 0.9941406a20 20 0 0 1 0.324219 0.2949219 20 20 0 0 0 -0.324219 -0.2949219zm0 1a20 20 0 0 1 0.324219 0.2949224 20 20 0 0 0 -0.324219 -0.2949224zm1.173828 1.1347654a20 20 0 0 1 0.34961 0.375c0.0153 0.0071 0.0316 0.01238 0.04687 0.01953a20 20 0 0 0 -0.39648 -0.39453zm-30.328125 5.326172c-0.0062777 0.182022-0.0214844 0.361334-0.0214844 0.544922 0 8.560414 6.727723 15.530454 15.181641 15.958984-1.633496-0.16589-3.115922-0.82948-4.308594-1.828125-6.181265-2.088035-10.658738-7.835994-10.851563-14.675781z" style="opacity:.2"/>
 <path d="m 8,16 c 0,0.15097 0.017327,0.297313 0.021484,0.447266 z M 4.0253906,24.490234 C 4.0147591,24.660041 4.0062949,24.829977 4,25 4.0086093,30.857929 6.5849843,36.417588 11.048828,40.210938 12.608902,40.718533 14.270603,41 16,41 c 8.560414,0 15.530454,-6.727723 15.958984,-15.181641 -0.06254,0.615797 -0.2023,1.206997 -0.396484,1.773438 C 29.932788,34.69549 23.598588,40 16,40 14.270603,40 12.608902,39.718533 11.048828,39.210938 6.7223094,35.524945 4.1684502,30.172209 4.0253906,24.490234 Z" style="opacity:.2"/>
 <path d="m24.818359 17.041016c3.865954 0.392609 6.908628 3.540192 7.15625 7.447265 0.009933-0.162732 0.025421-0.325196 0.025391-0.488281 0-2.464873-1.12032-4.663272-2.873047-6.130859-1.364205-0.46083-2.807552-0.752037-4.308594-0.828125zm15.160157 15.503906c-0.052859 1.53262-0.313868 3.011789-0.767578 4.40625a20 20 0 0 1 -15.210938 7.048828 20 20 0 0 1 -10.861328 -3.269531c-0.698466-0.128289-1.384306-0.293503-2.048828-0.507813a20 20 0 0 0 12.910156 4.777344 20 20 0 0 0 15.210938 -7.048828c0.507595-1.560074 0.789062-3.221775 0.789062-4.951172 0-0.153508-0.017186-0.302622-0.021484-0.455078zm-30.72461 5.93164a20 20 0 0 0 0.3964844 0.394532 20 20 0 0 1 -0.3496094 -0.375c-0.0153049-0.0071-0.0315949-0.012381-0.046875-0.019532zm1.2460938 0.234376a20 20 0 0 0 0.324219 0.294921 20 20 0 0 1 -0.324219 -0.294921zm0 1a20 20 0 0 0 0.324219 0.294921 20 20 0 0 1 -0.324219 -0.294921z" style="opacity:.2"/>
 <path d="M 23.181641,31.958984 C 22.117085,31.850872 27.788175,30.606661 26.929647,30.122642 24.534852,28.772511 16.4,27.049056 16.4,24 c -5e-5,-0.270702 -0.38636,-0.541233 -0.35898,-0.810547 4.05e-4,-0.008 0.0015,-0.01549 0.002,-0.02344 C 16.47941,14.719549 23.444943,8 32,8 33.714482,8 35.361802,8.277997 36.910156,8.777344 33.307637,5.7074273 28.733108,4.0146438 24,4 18.142071,4.0086093 12.582412,6.5849843 8.789062,11.048828 8.281467,12.608902 8,14.270603 8,16 8,24.560414 14.727723,31.530454 23.181641,31.958984 Z M 38.746094,10.523438 c -0.130316,-0.133352 -0.262491,-0.264876 -0.396485,-0.394532 0.118134,0.123501 0.23468,0.248511 0.34961,0.375 0.0153,0.0071 0.0316,0.01238 0.04687,0.01953 z M 37.5,9.289062 C 37.393007,9.1895737 37.284928,9.0912608 37.175781,8.994141 37.284928,9.0912608 37.393007,9.1895737 37.5,9.289062 Z" style="fill:#baff41"/>
 <path d="M 24 4 A 20 20 0 0 0 4 24 A 20 20 0 0 0 4.0214844 24.582031 A 20 20 0 0 1 24 5 A 20 20 0 0 1 43.978516 24.417969 A 20 20 0 0 0 44 24 A 20 20 0 0 0 24 4 z" style="fill:#ffffff;opacity:.2"/>
 <path d="M 31.978516 24.423828 A 8 8 0 0 1 24 32 A 8 8 0 0 1 16.021484 24.576172 A 8 8 0 0 0 16 25 A 8 8 0 0 0 24 33 A 8 8 0 0 0 32 25 A 8 8 0 0 0 31.978516 24.423828 z" style="opacity:.2"/>
 <circle cx="24" cy="24" r="8" style="fill:#555555"/>
</svg>

<svg xmlns="http://www.w3.org/2000/svg" width="48" height="48" version="1.1" viewBox="0 0 48 48">
 <path style="fill:#ffc42e" d="M 34.748047 7.1601562 C 33.654995 7.3638118 32.563396 7.5996094 32 7.5996094 C 27.382418 7.5996094 22.008512 9.5432546 18.824219 13.443359 C 16.105234 16.773556 15.234485 21.760516 15.037109 25.654297 C 15.233325 23.722199 17.815839 23.337512 19.138672 22.251953 C 20.577797 21.070961 21.84173 16.800781 24 16.800781 C 24.270702 16.800731 24.541233 16.814417 24.810547 16.841797 C 24.818547 16.842202 24.826034 16.84325 24.833984 16.84375 C 33.280445 17.280089 39.5 23.444943 39.5 32 C 39.5 33.714482 39.222003 35.361802 38.722656 36.910156 C 38.862929 36.972496 38.995996 37.020647 39.128906 37.066406 A 20 20 0 0 0 39.136719 37.056641 C 39.418856 36.729922 39.676463 36.38732 39.935547 36.044922 A 20 20 0 0 0 40.308594 35.554688 C 40.527612 35.24592 40.727222 34.92511 40.927734 34.605469 A 20 20 0 0 0 41.332031 33.945312 C 41.507191 33.640479 41.669543 33.328709 41.828125 33.015625 A 20 20 0 0 0 42.191406 32.263672 C 42.335282 31.947512 42.470502 31.627731 42.597656 31.304688 A 20 20 0 0 0 42.894531 30.496094 C 43.002001 30.184262 43.107249 29.871639 43.199219 29.554688 A 20 20 0 0 0 43.439453 28.607422 C 43.507274 28.322301 43.579466 28.038273 43.634766 27.75 A 20 20 0 0 0 43.804688 26.626953 C 43.838103 26.376542 43.882304 26.129029 43.90625 25.876953 A 20 20 0 0 0 44 24 C 43.9983 23.57971 43.983288 23.15958 43.955078 22.740234 C 43.954953 22.73829 43.955207 22.736319 43.955078 22.734375 C 43.947226 22.615552 43.933638 22.497394 43.923828 22.378906 C 43.879948 21.822958 43.81283 21.269089 43.722656 20.71875 C 43.701883 20.594979 43.675854 20.47269 43.652344 20.349609 A 20 20 0 0 0 43.648438 20.328125 C 43.563077 19.875555 43.462101 19.426068 43.345703 18.980469 C 43.345342 18.979084 43.344112 18.977947 43.34375 18.976562 C 43.283856 18.747375 43.220235 18.519584 43.152344 18.292969 C 43.039598 17.917669 42.915847 17.545763 42.78125 17.177734 C 42.676756 16.891346 42.566608 16.607306 42.449219 16.326172 C 42.315027 16.003479 42.172399 15.684359 42.021484 15.369141 C 41.909626 15.13638 41.798324 14.902304 41.677734 14.673828 A 20 20 0 0 0 41.671875 14.660156 L 41.669922 14.658203 C 41.484184 14.310077 41.288088 13.967432 41.082031 13.630859 C 41.078371 13.624847 41.073978 13.61929 41.070312 13.613281 C 40.909349 13.349402 40.743638 13.088539 40.570312 12.832031 L 40.566406 12.826172 A 20 20 0 0 0 40.5625 12.818359 C 40.360356 12.519725 40.148224 12.225449 39.929688 11.9375 C 39.727062 11.670519 39.517228 11.409512 39.300781 11.152344 A 20 20 0 0 0 39.292969 11.142578 C 39.221377 11.059956 39.149109 10.977921 39.076172 10.896484 C 38.672807 10.433425 38.250564 9.9856845 37.802734 9.5585938 C 37.797023 9.5532271 37.790874 9.5483287 37.785156 9.5429688 A 20 20 0 0 0 37.6875 9.4511719 C 37.447455 9.2258243 37.203391 9.0033968 36.951172 8.7890625 C 36.956116 8.7841458 36.957988 8.7802841 36.962891 8.7753906 A 20 20 0 0 0 34.748047 7.1601562 z M 38.505859 37.175781 C 38.408739 37.284928 38.310426 37.393007 38.210938 37.5 C 38.310428 37.393007 38.408739 37.284928 38.505859 37.175781 z M 37.371094 38.349609 C 37.247593 38.467743 37.122583 38.584289 36.996094 38.699219 C 36.988994 38.714519 36.983713 38.730824 36.976562 38.746094 C 37.109915 38.615778 37.24144 38.483598 37.371094 38.349609 z"/>
 <path style="fill:#ff8514" d="M 24.818359 16.041016 C 28.852408 16.450696 30.699219 19.957473 30.699219 24.099609 C 30.699269 24.370311 30.685583 24.640841 30.658203 24.910156 C 30.657798 24.918156 30.65675 24.925644 30.65625 24.933594 C 30.219911 33.380056 24.555057 39.599609 16 39.599609 C 14.285518 39.599609 11.794448 38.300128 10.246094 37.800781 C 10.296822 37.84401 10.225396 38.056014 10.101562 38.351562 A 20 20 0 0 0 24 44 C 24.42029 43.9983 24.84042 43.983288 25.259766 43.955078 C 25.26171 43.954953 25.263681 43.955207 25.265625 43.955078 C 25.384448 43.947226 25.502606 43.933638 25.621094 43.923828 C 26.177042 43.879948 26.730911 43.81283 27.28125 43.722656 C 27.405021 43.701883 27.52731 43.675854 27.650391 43.652344 A 20 20 0 0 0 27.671875 43.648438 C 28.124445 43.563077 28.573932 43.462101 29.019531 43.345703 C 29.020916 43.345342 29.022053 43.344112 29.023438 43.34375 C 29.252625 43.283856 29.480416 43.220235 29.707031 43.152344 C 30.082331 43.039598 30.454237 42.915847 30.822266 42.78125 C 31.108654 42.676756 31.392694 42.566608 31.673828 42.449219 C 31.996521 42.315027 32.315641 42.172399 32.630859 42.021484 C 32.86362 41.909626 33.097696 41.798324 33.326172 41.677734 A 20 20 0 0 0 33.339844 41.671875 L 33.341797 41.669922 C 33.68997 41.484137 34.032568 41.288088 34.369141 41.082031 C 34.375153 41.078371 34.38071 41.073978 34.386719 41.070312 C 34.650598 40.909349 34.911461 40.743638 35.167969 40.570312 L 35.173828 40.566406 A 20 20 0 0 0 35.181641 40.5625 C 35.480273 40.360368 35.774551 40.148224 36.0625 39.929688 C 36.329481 39.727062 36.590488 39.517228 36.847656 39.300781 A 20 20 0 0 0 36.857422 39.292969 C 36.940042 39.221379 37.022079 39.149109 37.103516 39.076172 C 37.566575 38.672807 38.014315 38.250564 38.441406 37.802734 C 38.446773 37.797023 38.451671 37.790874 38.457031 37.785156 A 20 20 0 0 0 38.548828 37.6875 C 38.774176 37.447455 38.996603 37.203391 39.210938 36.951172 C 39.718488 35.391133 40 33.729397 40 32 C 40 23.439586 33.272277 16.469546 24.818359 16.041016 z M 9.2539062 37.076172 C 9.3842223 37.209524 9.5163965 37.341047 9.6503906 37.470703 C 9.5322567 37.347202 9.4157107 37.222192 9.3007812 37.095703 C 9.2854763 37.088603 9.2691863 37.083322 9.2539062 37.076172 z"/>
 <path style="fill:#ff5757" d="M 10.923828 9.2539062 C 10.790476 9.3842223 10.658953 9.5163965 10.529297 9.6503906 C 10.652798 9.5322567 10.777808 9.4157107 10.904297 9.3007812 C 10.911397 9.2854763 10.916678 9.2691863 10.923828 9.2539062 z M 9.6894531 10.5 C 9.5899648 10.606993 9.491651 10.715072 9.3945312 10.824219 C 9.491651 10.715072 9.5899648 10.606993 9.6894531 10.5 z M 9.0410156 10.751953 A 20 20 0 0 0 4 24 A 20 20 0 0 0 4.0449219 25.259766 C 4.0527239 25.380554 4.0661967 25.500668 4.0761719 25.621094 A 20 20 0 0 0 4.2773438 27.28125 C 4.2993257 27.412213 4.3270069 27.54154 4.3515625 27.671875 A 20 20 0 0 0 4.6542969 29.019531 C 4.7144923 29.250123 4.7793549 29.479047 4.8476562 29.707031 A 20 20 0 0 0 5.21875 30.822266 C 5.3232437 31.108654 5.4333918 31.392694 5.5507812 31.673828 A 20 20 0 0 0 5.9785156 32.630859 C 6.0925157 32.868077 6.2048166 33.107236 6.328125 33.339844 C 6.3285332 33.340614 6.3296698 33.341027 6.3300781 33.341797 A 20 20 0 0 0 6.9179688 34.369141 C 7.0823444 34.639191 7.2524155 34.90562 7.4296875 35.167969 C 7.634517 35.4711 7.8485939 35.770359 8.0703125 36.0625 C 8.2754556 36.3328 8.4877202 36.597157 8.7070312 36.857422 A 20 20 0 0 0 8.9238281 37.103516 C 9.3271931 37.566575 9.7494362 38.014315 10.197266 38.441406 A 20 20 0 0 0 10.3125 38.548828 C 10.552545 38.774176 10.796609 38.996603 11.048828 39.210938 C 12.608902 39.718533 14.270603 40 16 40 C 24.560414 40 31.530454 33.272277 31.958984 24.818359 C 31.549304 28.852408 28.142136 31.699219 24 31.699219 C 23.729298 31.699269 23.458767 31.685583 23.189453 31.658203 C 23.181453 31.657798 23.173966 31.65675 23.166016 31.65625 C 14.719552 31.21986 8.4003906 24.555057 8.4003906 16 C 8.4003906 14.285518 8.6783874 12.638198 9.1777344 11.089844 C 9.1323414 10.964676 9.0865163 10.869818 9.0410156 10.751953 z"/>
 <path style="opacity:0.2" d="m 24,15.999906 c -3.50984,0 -6.484594,2.263919 -7.5625,5.408203 -0.206288,0.899183 -0.348336,1.823577 -0.396484,2.773438 0.40968,-4.034049 3.816848,-7.181641 7.958984,-7.181641 0.270702,-5e-5 0.541233,0.01364 0.810547,0.04102 0.008,4.05e-4 0.01549,0.0015 0.02344,0.002 8.297411,0.428689 14.913086,7.162299 15.144532,15.509765 C 39.98499,32.368228 40,32.185941 40,31.999906 40,23.444849 33.280448,16.479265 24.833984,16.042875 c -0.008,-5e-4 -0.01544,-0.0015 -0.02344,-0.002 C 24.541233,16.013542 24.270702,15.999856 24,15.999906 Z m 19.974609,8.509766 a 20,20 0 0 1 -4.351562,11.878906 c -0.112688,0.515421 -0.240383,1.02534 -0.400391,1.521484 A 20,20 0 0 0 44,24.999906 20,20 0 0 0 43.974609,24.509672 Z m -4.96875,12.666015 a 20,20 0 0 1 -0.294921,0.324219 20,20 0 0 0 0.294921,-0.324219 z m 0,1 a 20,20 0 0 1 -0.294921,0.324219 20,20 0 0 0 0.294921,-0.324219 z m -1.134765,1.173828 a 20,20 0 0 1 -0.375,0.34961 c -0.0071,0.0153 -0.01238,0.0316 -0.01953,0.04687 a 20,20 0 0 0 0.394532,-0.396485 z"/>
 <path style="opacity:0.2" d="m 32,8.000016 c -8.555057,0 -15.520641,6.719552 -15.957031,15.166016 -5e-4,0.0079 -0.0015,0.01544 -0.002,0.02344 -0.02738,0.269314 -0.04107,0.539845 -0.04102,0.810547 0,0.1726 0.01462,0.341835 0.02539,0.511719 0.0066,-0.107384 0.0047,-0.215201 0.01563,-0.322266 4.05e-4,-0.008 0.0015,-0.01549 0.002,-0.02344 C 16.479359,15.719568 23.444943,9.000016 32,9.000016 c 1.714482,0 3.361802,0.2779967 4.910156,0.7773438 A 20,20 0 0 0 34.861328,8.2695472 C 33.93235,8.0989205 32.978661,8.000016 32,8.000016 Z m 5.175781,0.9941406 A 20,20 0 0 1 37.5,9.2890785 20,20 0 0 0 37.175781,8.9941566 Z m 0,1 A 20,20 0 0 1 37.5,10.289079 20,20 0 0 0 37.175781,9.9941566 Z m 1.173828,1.1347654 a 20,20 0 0 1 0.34961,0.375 c 0.0153,0.0071 0.0316,0.01238 0.04687,0.01953 A 20,20 0 0 0 38.349609,11.128922 Z M 8.0214844,16.455094 C 8.0152067,16.637116 8,16.816428 8,17.000016 8,25.56043 14.727723,32.53047 23.181641,32.959 21.548145,32.79311 20.065719,32.12952 18.873047,31.130875 12.691782,29.04284 8.2143089,23.294881 8.0214844,16.455094 Z"/>
 <path style="opacity:0.2" d="m 8,16 c 0,0.15097 0.017327,0.297313 0.021484,0.447266 z M 4.0253906,24.490234 C 4.0147591,24.660041 4.0062949,24.829977 4,25 4.0086093,30.857929 6.5849843,36.417588 11.048828,40.210938 12.608902,40.718533 14.270603,41 16,41 c 8.560414,0 15.530454,-6.727723 15.958984,-15.181641 -0.06254,0.615797 -0.2023,1.206997 -0.396484,1.773438 C 29.932788,34.69549 23.598588,40 16,40 14.270603,40 12.608902,39.718533 11.048828,39.210938 6.7223094,35.524945 4.1684502,30.172209 4.0253906,24.490234 Z"/>
 <path style="opacity:0.2" d="M 24.818359 17.041016 C 28.684313 17.433625 31.726987 20.581208 31.974609 24.488281 C 31.984542 24.325549 32.00003 24.163085 32 24 C 32 21.535127 30.87968 19.336728 29.126953 17.869141 C 27.762748 17.408311 26.319401 17.117104 24.818359 17.041016 z M 39.978516 32.544922 C 39.925657 34.077542 39.664648 35.556711 39.210938 36.951172 A 20 20 0 0 1 24 44 A 20 20 0 0 1 13.138672 40.730469 C 12.440206 40.60218 11.754366 40.436966 11.089844 40.222656 A 20 20 0 0 0 24 45 A 20 20 0 0 0 39.210938 37.951172 C 39.718533 36.391098 40 34.729397 40 33 C 40 32.846492 39.982814 32.697378 39.978516 32.544922 z M 9.2539062 38.476562 A 20 20 0 0 0 9.6503906 38.871094 A 20 20 0 0 1 9.3007812 38.496094 C 9.2854763 38.488994 9.2691863 38.483713 9.2539062 38.476562 z M 10.5 38.710938 A 20 20 0 0 0 10.824219 39.005859 A 20 20 0 0 1 10.5 38.710938 z M 10.5 39.710938 A 20 20 0 0 0 10.824219 40.005859 A 20 20 0 0 1 10.5 39.710938 z"/>
 <path style="fill:#baff41" d="M 23.181641,31.958984 C 22.117085,31.850872 27.788175,30.606661 26.929647,30.122642 24.534852,28.772511 16.4,27.049056 16.4,24 c -5e-5,-0.270702 -0.38636,-0.541233 -0.35898,-0.810547 4.05e-4,-0.008 0.0015,-0.01549 0.002,-0.02344 C 16.47941,14.719549 23.444943,8 32,8 33.714482,8 35.361802,8.277997 36.910156,8.777344 33.307637,5.7074273 28.733108,4.0146438 24,4 18.142071,4.0086093 12.582412,6.5849843 8.789062,11.048828 8.281467,12.608902 8,14.270603 8,16 8,24.560414 14.727723,31.530454 23.181641,31.958984 Z M 38.746094,10.523438 c -0.130316,-0.133352 -0.262491,-0.264876 -0.396485,-0.394532 0.118134,0.123501 0.23468,0.248511 0.34961,0.375 0.0153,0.0071 0.0316,0.01238 0.04687,0.01953 z M 37.5,9.289062 C 37.393007,9.1895737 37.284928,9.0912608 37.175781,8.994141 37.284928,9.0912608 37.393007,9.1895737 37.5,9.289062 Z"/>
 <path style="opacity:0.2;fill:#ffffff" d="M 24 4 A 20 20 0 0 0 4 24 A 20 20 0 0 0 4.0214844 24.582031 A 20 20 0 0 1 24 5 A 20 20 0 0 1 43.978516 24.417969 A 20 20 0 0 0 44 24 A 20 20 0 0 0 24 4 z"/>
 <path style="opacity:0.2" d="M 31.978516 24.423828 A 8 8 0 0 1 24 32 A 8 8 0 0 1 16.021484 24.576172 A 8 8 0 0 0 16 25 A 8 8 0 0 0 24 33 A 8 8 0 0 0 32 25 A 8 8 0 0 0 31.978516 24.423828 z"/>
 <circle style="fill:#555555" cx="24" cy="24" r="8"/>
</svg>
